X:257
T:Punch In The Dark
C:Gerry O'Connor
Z:robin.beech@mcgill.ca
R:reel
M:4/4
L:1/8
K:Bdor
|: B3d cBdc | BdcA F3A |BABd cBAB | caag afec |
BABd cBdc | BdcA FAGB | AEEE ABce |1 faec dcBA :|2 faec defg |:
a2ag aece | a3e gabg | a2ag aece |(3fga ed ceBe |
a2ag aece | a3e gabg | a2ge (3fga ec |1 dcBc defg :|2 d2cA BdcA |]
